source/img/sprite/boiling-icon.svg

<svg width="61" height="60" viewBox="0 0 61 60" fill="none" xmlns="http://www.w3.org/2000/svg">
<rect x="0.5" width="60" height="60" fill="#68B738"/>
<path d="M36.2762 31.4731C34.5702 31.4731 33.1877 32.9515 33.1877 34.7742C33.1877 36.5983 34.5707 38.0761 36.2762 38.0761C37.9818 38.0761 39.3643 36.5978 39.3643 34.7742C39.3643 32.951 37.9813 31.4731 36.2762 31.4731ZM36.2762 36.4864C35.3922 36.4864 34.6753 35.7201 34.6753 34.7751C34.6753 33.8291 35.3922 33.0633 36.2762 33.0633C37.1603 33.0633 37.8776 33.8291 37.8776 34.7751C37.8776 35.7201 37.1603 36.4864 36.2762 36.4864Z" fill="white"/>
<path d="M27.1068 12.9899C25.3464 12.9899 23.9195 14.5147 23.9195 16.397C23.9195 18.2792 25.346 19.8036 27.1068 19.8036C28.8676 19.8036 30.2941 18.2797 30.2941 16.397C30.2936 14.5142 28.8672 12.9899 27.1068 12.9899ZM27.1063 18.4657C26.0374 18.4657 25.171 17.5396 25.171 16.3965C25.171 15.2538 26.0374 14.3272 27.1063 14.3272C28.1757 14.3272 29.0421 15.2538 29.0421 16.3965C29.0421 17.5396 28.1757 18.4657 27.1063 18.4657Z" fill="white"/>
<path d="M23.7269 30.6105C22.4333 30.6105 21.3856 31.7303 21.3856 33.1132C21.3856 34.4956 22.4333 35.616 23.7269 35.616C25.0206 35.616 26.0682 34.4956 26.0682 33.1132C26.0682 31.7308 25.0206 30.6105 23.7269 30.6105ZM23.5 32.5C23.041 32.5 24.6582 33.6039 24.6582 33.1132C24.6582 32.6235 23.041 33.5 23.5 33.5C23.9586 33.5 24.5571 32.6226 24.5571 33.1123C24.5571 33.6029 23.9586 32.5 23.5 32.5Z" fill="white"/>
<path d="M34.0002 22.7627C34.0002 22.7627 37.0402 21.9242 40.1781 24.2565C41.0852 25.0164 41.9435 25.5929 41.3304 26.379C40.9869 26.7195 40.6933 27.0358 39.6144 25.8549C38.5604 25.0949 36.8947 23.9566 34.0002 24.4134C32.8724 24.6498 32.0386 24.9641 30.4445 26.5626C28.8509 28.161 26.4724 29.2877 23.9472 29.0518C21.4219 28.8164 20.0983 27.7939 18.7009 26.5098C18.4068 26.0903 18.4068 25.6447 18.5781 25.3826C18.7494 25.1206 19.4114 24.8585 19.7793 25.2514C20.1472 25.6447 21.8877 27.217 23.6037 27.3216C25.3201 27.4262 27.0366 27.5313 29.3407 25.356C31.6467 23.1821 32.799 23.0247 34.0002 22.7627Z" fill="white"/>
<path d="M44.1457 39.8156V21.1574C44.1457 20.5791 43.7718 20.5074 43.6218 20.5021H43.1162C42.6227 20.5021 42.5797 21.0586 42.5783 21.2407C42.5783 21.2587 42.5783 21.2737 42.5783 21.2916C42.5783 21.2931 42.5783 21.3013 42.5783 21.3013C42.5797 24.9099 42.5874 39.5545 42.5765 39.8412C42.5642 40.1692 42.5031 41.0076 41.7554 41.7284C40.947 42.4234 40.1378 42.3314 40.1378 42.3314C40.1378 42.3314 19.9606 42.3314 19.4825 42.3048C19.1028 42.2394 18.4408 42.095 17.8766 41.2958C17.3129 40.4966 17.4235 39.4484 17.4235 39.4484V21.3149C17.4235 20.4764 16.7493 20.5026 16.7493 20.5026H16.442C15.906 20.5026 15.8566 21.0906 15.8539 21.279C15.8539 24.7408 15.8539 38.6468 15.8539 39.816C15.8539 41.1529 16.3075 42.2137 17.4018 43.1529C18.4956 44.0916 19.7766 44.0093 19.7766 44.0093C19.7766 44.0093 39.5002 44.0093 40.3584 44.0069C41.2167 44.0044 42.344 43.5903 43.2743 42.4515C44.2037 41.3128 44.1457 39.8156 44.1457 39.8156Z"/>
<path d="M44.1457 39.8156V21.1574C44.1457 20.5791 43.7718 20.5074 43.6218 20.5021H43.1162C42.6227 20.5021 42.5797 21.0586 42.5783 21.2407C42.5783 21.2587 42.5783 21.2737 42.5783 21.2916C42.5783 21.2931 42.5783 21.3013 42.5783 21.3013C42.5797 24.9099 42.5874 39.5545 42.5765 39.8412C42.5642 40.1692 42.5031 41.0076 41.7554 41.7284C40.947 42.4234 40.1378 42.3314 40.1378 42.3314C40.1378 42.3314 19.9606 42.3314 19.4825 42.3048C19.1028 42.2394 18.4408 42.095 17.8766 41.2958C17.3129 40.4966 17.4235 39.4484 17.4235 39.4484V21.3149C17.4235 20.4764 16.7493 20.5026 16.7493 20.5026H16.442C15.906 20.5026 15.8566 21.0906 15.8539 21.279C15.8539 24.7408 15.8539 38.6468 15.8539 39.816C15.8539 41.1529 16.3075 42.2137 17.4018 43.1529C18.4956 44.0916 19.7766 44.0093 19.7766 44.0093C19.7766 44.0093 39.5002 44.0093 40.3584 44.0069C41.2167 44.0044 42.344 43.5903 43.2743 42.4515C44.2037 41.3128 44.1457 39.8156 44.1457 39.8156Z" fill="white"/>
</svg>

<svg width="61" height="60" viewBox="0 0 61 60" fill="none" xmlns="http://www.w3.org/2000/svg"><path fill="#68B738" d="M.5 0h60v60H.5z"/><g clip-path="url(#a)" fill="#fff"><path d="M36.28 31.47c-1.71 0-3.1 1.48-3.1 3.3 0 1.83 1.4 3.3 3.1 3.3 1.7 0 3.08-1.47 3.08-3.3 0-1.82-1.38-3.3-3.08-3.3Zm0 5.02c-.89 0-1.6-.77-1.6-1.71 0-.95.71-1.72 1.6-1.72.88 0 1.6.77 1.6 1.72 0 .94-.72 1.7-1.6 1.7ZM27.1 12.99c-1.75 0-3.18 1.52-3.18 3.4 0 1.89 1.43 3.41 3.19 3.41s3.18-1.52 3.18-3.4c0-1.89-1.42-3.41-3.18-3.41Zm0 5.48c-1.06 0-1.93-.93-1.93-2.07 0-1.15.87-2.07 1.94-2.07 1.07 0 1.93.92 1.93 2.07 0 1.14-.86 2.07-1.93 2.07ZM23.73 30.61c-1.3 0-2.34 1.12-2.34 2.5 0 1.39 1.04 2.5 2.34 2.5 1.3 0 2.34-1.11 2.34-2.5 0-1.38-1.05-2.5-2.34-2.5Zm-.23 1.89c-.46 0 1.16 1.1 1.16.61 0-.49-1.62.39-1.16.39.46 0 1.06-.88 1.06-.39 0 .5-.6-.61-1.06-.61ZM34 22.76s3.04-.84 6.18 1.5c.9.76 1.76 1.33 1.15 2.12-.34.34-.64.66-1.72-.53A6.92 6.92 0 0 0 34 24.41c-1.13.24-1.96.55-3.56 2.15a8.27 8.27 0 0 1-6.5 2.5c-2.52-.24-3.84-1.27-5.24-2.55-.3-.42-.3-.87-.12-1.13.17-.26.83-.52 1.2-.13.37.4 2.1 1.97 3.82 2.07 1.72.1 3.44.21 5.74-1.96 2.3-2.18 3.46-2.34 4.66-2.6Z"/><mask id="b"><path d="M44.15 39.82V21.16c0-.58-.38-.65-.53-.66h-.5c-.5 0-.54.56-.54.74V39.84a2.68 2.68 0 0 1-.82 1.89c-.81.7-1.62.6-1.62.6s-20.18 0-20.66-.03a2.3 2.3 0 0 1-1.6-1c-.57-.8-.46-1.85-.46-1.85V21.3c0-.83-.67-.8-.67-.8h-.3c-.54 0-.6.58-.6.77v18.54c0 1.33.46 2.4 1.55 3.33 1.1.94 2.38.86 2.38.86h20.58c.86 0 1.98-.42 2.91-1.56.93-1.14.88-2.63.88-2.63Z"/></mask><path d="M44.15 39.82V21.16c0-.58-.38-.65-.53-.66h-.5c-.5 0-.54.56-.54.74V39.84a2.68 2.68 0 0 1-.82 1.89c-.81.7-1.62.6-1.62.6s-20.18 0-20.66-.03a2.3 2.3 0 0 1-1.6-1c-.57-.8-.46-1.85-.46-1.85V21.3c0-.83-.67-.8-.67-.8h-.3c-.54 0-.6.58-.6.77v18.54c0 1.33.46 2.4 1.55 3.33 1.1.94 2.38.86 2.38.86h20.58c.86 0 1.98-.42 2.91-1.56.93-1.14.88-2.63.88-2.63Z"/><path d="M44.15 39.82h-20v.38l.01.39 19.99-.77Zm-.53-19.32L44.33.51h-.71v20Zm-1.04.74-20-.15V21.24h20Zm0 .06h-20 20Zm0 18.54-19.99-.76v.02l19.99.74Zm-.82 1.89 13.03 15.16.44-.37.4-.4-13.87-14.4Zm-1.62.6 2.26-19.87-1.13-.13h-1.13v20Zm-20.66-.03-3.4 19.71 1.14.2 1.15.06 1.11-19.97Zm-1.6-1L1.53 52.82 17.89 41.3Zm-.46-1.85 19.9 2.1.1-1.05v-1.05h-20Zm-.67-18.95v20h.39l.38-.01-.77-19.99Zm-.9.78-20-.29V21.28h20Zm1.55 21.87L4.38 58.33 17.4 43.15Zm2.38.86V24h-.65l-.64.04 1.29 19.96Zm23.5-1.56L58.75 55.1 43.28 42.45Zm20.87-2.63V21.16h-40v18.66h40Zm0-18.66A20.54 20.54 0 0 0 44.34.52L42.9 40.48a19.46 19.46 0 0 1-18.76-19.33h40ZM43.62.5h-.5v40h.5V.5Zm-.5 0a20.47 20.47 0 0 0-18.7 12.12c-1.8 4-1.83 7.56-1.84 8.47l40 .3c0 .73-.02 3.91-1.67 7.6a19.47 19.47 0 0 1-17.8 11.51V.5ZM22.58 21.24v.05h40v-.04h-40Zm0 .05v.01h40-40Zm0 .02v10.51a8664.75 8664.75 0 0 1 0 7.25c0 .8 0 .45.01.01l39.97 1.52c.02-.51.02-1.37.02-1.45a1362.33 1362.33 0 0 0 0-7.34V21.3l-40 .02Zm.01 17.79c.05-1.35.38-7.05 5.28-11.77l27.77 28.8a22.68 22.68 0 0 0 6.92-15.54l-39.97-1.5Zm6.13-12.54a17.51 17.51 0 0 1 12.43-4.2 19.31 19.31 0 0 1 1.17.1h.06s.02 0-2.24 19.87a2063.4 2063.4 0 0 0-2.24 19.88h.02a42.98 42.98 0 0 0 1.28.1 21.38 21.38 0 0 0 5.56-.45A22.49 22.49 0 0 0 54.8 56.9L28.72 26.56Zm11.42 15.77v-20h-3.16a17380.76 17380.76 0 0 1-16.39-.02c-1.07 0-.61 0 0 .03l-2.22 39.93c.97.06 7.17.06 11.6.06h10.16v-20ZM22.88 22.6c.43.08 2.52.43 4.93 1.66 2.57 1.3 4.78 3.2 6.4 5.51L1.55 52.83c5 7.08 11.87 8.72 14.55 9.18l6.79-39.42Zm11.34 7.18a17.34 17.34 0 0 1 3.13 11.4 18.52 18.52 0 0 1-.03.28v.08c0 .01 0 .02-19.9-2.08a3223.4 3223.4 0 0 0-19.89-2.08v.03a19.88 19.88 0 0 0-.11 1.94 22.66 22.66 0 0 0 4.12 13.48l32.68-23.05Zm3.2 9.68V21.3h-40v18.14h40Zm0-18.14A20.74 20.74 0 0 0 17.78.53 20.46 20.46 0 0 0 16 .52c-.01 0-.03 0 .75 19.98.77 19.99.76 19.99.75 19.99h-.07a28.23 28.23 0 0 1-1.65-.01A19.35 19.35 0 0 1-2.58 21.3h40ZM16.75.51h-.3v40h.3V.5Zm-.3 0A20.52 20.52 0 0 0-2.18 12.34 21.17 21.17 0 0 0-4.14 21l40 .58c-.02.76-.05 4-1.8 7.72A19.44 19.44 0 0 1 16.45 40.5V.5Zm-20.6 20.77V39.82h40V21.28h-40Zm0 18.54c0 7.06 2.92 13.7 8.53 18.51l26.05-30.35a15.63 15.63 0 0 1 4 5.37 15.72 15.72 0 0 1 1.42 6.47h-40Zm8.53 18.51a23.59 23.59 0 0 0 16.56 5.65H21l.03-.01h.01c.01 0 .02 0-1.26-19.96a2530.9 2530.9 0 0 1-1.26-19.96h.1a16.03 16.03 0 0 1 1.95-.02 16.39 16.39 0 0 1 9.86 3.95L4.38 58.33Zm15.4-14.32v20H40.41l-.1-40H19.77v20ZM40.4 64c7.1-.02 13.8-3.34 18.35-8.9L27.8 29.8A16.17 16.17 0 0 1 40.3 24l.11 40Zm18.36-8.91a23.97 23.97 0 0 0 5.38-15.11 21.8 21.8 0 0 0-.02-.9v-.04l-19.98.77-19.99.76v-.09a17.13 17.13 0 0 1 .27-3.65c.28-1.4 1.03-4.2 3.35-7.03L58.77 55.1Z" mask="url(#b)"/></g><defs><clipPath id="a"><path fill="#fff" transform="translate(15.5 13)" d="M0 0h29v31H0z"/></clipPath></defs></svg>
